icons/circle/48/palimpsest.svg

<svg xmlns="http://www.w3.org/2000/svg" viewBox="0 0 48 48">
 <defs>
  <linearGradient id="linearGradient3764" x1="1" x2="47" gradientUnits="userSpaceOnUse" gradientTransform="matrix(0,-1,1,0,-1.5e-6,47.999998)">
   <stop style="stop-color:#7f8c8d;stop-opacity:1"/>
   <stop offset="1" style="stop-color:#8c9798;stop-opacity:1"/>
  </linearGradient>
  <radialGradient id="radialGradient3977" cx="24" cy="1024.36" r="11" gradientTransform="matrix(0.28222223,0,0,0.2309091,-2.0833331e-8,-230.60788)" gradientUnits="userSpaceOnUse">
   <stop style="stop-color:#dadada;stop-opacity:1"/>
   <stop offset="1" style="stop-color:#e4e4e4;stop-opacity:1"/>
  </radialGradient>
 </defs>
 <g>
  <path d="m 36.31 5 c 5.859 4.062 9.688 10.831 9.688 18.5 c 0 12.426 -10.07 22.5 -22.5 22.5 c -7.669 0 -14.438 -3.828 -18.5 -9.688 c 1.037 1.822 2.306 3.499 3.781 4.969 c 4.085 3.712 9.514 5.969 15.469 5.969 c 12.703 0 23 -10.298 23 -23 c 0 -5.954 -2.256 -11.384 -5.969 -15.469 c -1.469 -1.475 -3.147 -2.744 -4.969 -3.781 z m 4.969 3.781 c 3.854 4.113 6.219 9.637 6.219 15.719 c 0 12.703 -10.297 23 -23 23 c -6.081 0 -11.606 -2.364 -15.719 -6.219 c 4.16 4.144 9.883 6.719 16.219 6.719 c 12.703 0 23 -10.298 23 -23 c 0 -6.335 -2.575 -12.06 -6.719 -16.219 z" style="opacity:0.05"/>
  <path d="m 41.28 8.781 c 3.712 4.085 5.969 9.514 5.969 15.469 c 0 12.703 -10.297 23 -23 23 c -5.954 0 -11.384 -2.256 -15.469 -5.969 c 4.113 3.854 9.637 6.219 15.719 6.219 c 12.703 0 23 -10.298 23 -23 c 0 -6.081 -2.364 -11.606 -6.219 -15.719 z" style="opacity:0.1"/>
  <path d="m 31.25 2.375 c 8.615 3.154 14.75 11.417 14.75 21.13 c 0 12.426 -10.07 22.5 -22.5 22.5 c -9.708 0 -17.971 -6.135 -21.12 -14.75 a 23 23 0 0 0 44.875 -7 a 23 23 0 0 0 -16 -21.875 z" style="opacity:0.2"/>
 </g>
 <g>
  <path d="m 24 1 c 12.703 0 23 10.297 23 23 c 0 12.703 -10.297 23 -23 23 -12.703 0 -23 -10.297 -23 -23 0 -12.703 10.297 -23 23 -23 z" style="fill:url(#linearGradient3764);fill-opacity:1"/>
 </g>
 <g>
  <path d="m 40.03 7.531 c 3.712 4.084 5.969 9.514 5.969 15.469 0 12.703 -10.297 23 -23 23 c -5.954 0 -11.384 -2.256 -15.469 -5.969 4.178 4.291 10.01 6.969 16.469 6.969 c 12.703 0 23 -10.298 23 -23 0 -6.462 -2.677 -12.291 -6.969 -16.469 z" style="opacity:0.1"/>
 </g>
 <g transform="matrix(3.543307,0,0,3.543307,-3.9306536e-4,-1.1524057e-7)">
  <path d="m 16 13 -2 18 0 6 22 0 0 -6 -2 -18 -18 0 z" transform="scale(0.28222223,0.28222223)" style="fill:#000;opacity:0.1;fill-opacity:1;stroke:none;display:inline"/>
  <rect width="6.209" height="1.693" x="3.669" y="8.467" style="fill:#1f1f1f;fill-opacity:1;stroke:none;display:inline"/>
  <path d="m 4.233 3.387 4.233 0 -3.104 5.08 -1.693 0 z" style="fill:url(#radialGradient3977);fill-opacity:1;stroke:none;display:inline"/>
  <path d="m 32 31 a 1 1 0 1 1 -2 0 1 1 0 1 1 2 0 z" transform="matrix(0.28222223,0,0,0.28222223,0.28222228,0.56444909)" style="fill:#03aae5;fill-opacity:1;stroke:none;display:inline"/>
  <path d="m 30,12 -6,8 1,1 9,5 0.515625,-0.351562 L 33,12 Z" transform="scale(0.28222223,0.28222223)" style="fill:#edd238;fill-opacity:1;stroke:none;display:inline"/>
  <path d="m 6.773,5.644 1.173,2.822 1.931,0 L 9.745,7.24 6.773,5.644" style="fill:#557ab1;fill-opacity:1;stroke:none;display:inline"/>
  <path d="m 6.773 5.644 1.411 2.822 -2.822 0 z" style="fill:#45b95e;fill-opacity:1;stroke:none;display:inline"/>
 </g>
</svg>

<svg xmlns="http://www.w3.org/2000/svg" viewBox="0 0 48 48">
  <defs>
    <linearGradient id="a" x1="1" x2="47" gradientUnits="userSpaceOnUse" gradientTransform="rotate(-90 24 24)">
      <stop stop-color="#7f8c8d"/>
      <stop offset="1" stop-color="#8c9798"/>
    </linearGradient>
    <radialGradient id="b" cx="24" cy="1024.36" r="11" gradientTransform="matrix(.28222 0 0 .2309 0 -230.608)" gradientUnits="userSpaceOnUse">
      <stop stop-color="#dadada"/>
      <stop offset="1" stop-color="#e4e4e4"/>
    </radialGradient>
  </defs>
  <path d="M36.31 5c5.859 4.062 9.688 10.831 9.688 18.5 0 12.426-10.07 22.5-22.5 22.5-7.669 0-14.438-3.828-18.5-9.688a23.24 23.24 0 0 0 3.781 4.969 22.923 22.923 0 0 0 15.469 5.969c12.703 0 23-10.298 23-23a22.92 22.92 0 0 0-5.969-15.469A23.216 23.216 0 0 0 36.31 5zm4.969 3.781A22.911 22.911 0 0 1 47.498 24.5c0 12.703-10.297 23-23 23a22.909 22.909 0 0 1-15.719-6.219C12.939 45.425 18.662 48 24.998 48c12.703 0 23-10.298 23-23 0-6.335-2.575-12.06-6.719-16.219z" opacity=".05"/>
  <path d="M41.28 8.781a22.923 22.923 0 0 1 5.969 15.469c0 12.703-10.297 23-23 23A22.92 22.92 0 0 1 8.78 41.281 22.911 22.911 0 0 0 24.499 47.5c12.703 0 23-10.298 23-23A22.909 22.909 0 0 0 41.28 8.781z" opacity=".1"/>
  <path d="M31.25 2.375C39.865 5.529 46 13.792 46 23.505c0 12.426-10.07 22.5-22.5 22.5-9.708 0-17.971-6.135-21.12-14.75a23 23 0 0 0 44.875-7 23 23 0 0 0-16-21.875z" opacity=".2"/>
  <path d="M24 1c12.703 0 23 10.297 23 23S36.703 47 24 47 1 36.703 1 24 11.297 1 24 1z" fill="url(#a)"/>
  <g>
    <path d="M40.03 7.531A22.922 22.922 0 0 1 45.999 23c0 12.703-10.297 23-23 23A22.92 22.92 0 0 1 7.53 40.031C11.708 44.322 17.54 47 23.999 47c12.703 0 23-10.298 23-23 0-6.462-2.677-12.291-6.969-16.469z" opacity=".1"/>
  </g>
  <g>
    <path d="M16 13l-2 18v6h22v-6l-2-18H16z" opacity=".1"/>
    <path fill="#1f1f1f" d="M13 30.001h22V36H13z"/>
    <path d="M4.233 3.387h4.233l-3.104 5.08H3.669z" fill="url(#b)" transform="matrix(3.5433 0 0 3.5433 0 0)"/>
    <path d="M33 33a1 1 0 1 1-2 0 1 1 0 1 1 2 0z" fill="#03aae5"/>
    <path d="M30 12l-6 8 1 1 9 5 .515-.352L33 12z" fill="#edd238"/>
    <path d="M23.998 19.998l4.157 10h6.842l-.468-4.344L24 19.998" fill="#557ab1"/>
    <path d="M23.998 19.998l5 10h-10z" fill="#45b95e"/>
  </g>
</svg>
